%
(Thinner setup for wood frame)
(Set mill so 0Y leaves at least no material in Y front because we need full depth)
(of machine for this focus depth )

(adjust speeds for material particle_board)
(mult_speed = 4.5)
(mult_cut_inc = 1.5)
(mult_cut_depth_inc=20.0)
(mult_plungg_speed=7.0)
(new speed =46.79136)
(new cut_inc = 0.09375)
(original cut_depth_inc=0.012 )
(new cut_depth_inc=0.24)
(new plung_speed=8.08739555555556)
(Produce Parabola   13.000 inch wide  with focus 5.0 inches above center of parabola.   Cut material   -0.500)
(Basic parabola shape with focus point used for end plates or drape mold)
(Focus point is on Y access positive Y when cutting starts at zero-y at edge of sheet)
(Cut depth of   -0.500)
(Set X to center of material and Y to very from edge.  All Y are cut in +Y direction)
(Set CutDepthIncrement to a smaller number if cutting materials harder than styrofoam)
(Will trim the sides.  In general the material needs to be at least several inches)
(greater in the Y diameter than the focal point)


G00 Z  0.1000 (retract) 
G00 X0 Y0 (HOME) 
(width input=13)
(calc max_y=2.1125 mill max_y=5.35 focus point max y=5.1225)
(calc max_x=6.5 mill max_x=13.65)
(draw bottom parabola focus line)
G00 Z0.02 (plung to zero fast)
G01 Z -0.1000 F  8.0874 (plung)
G01  X -6.5000 F10.4
G01  X  6.5000 F10.4
(draw vertical focus line up the center)
G00 Z  0.1000 (retract) 
G01  X  0.0000 F10.4
G00 Z0.02 (plung to zero fast)
G01 Z -0.1000 F  8.0874 (plung)
G01  Y  5.3500 F10.4
(Draw Horizontal line through focus point)
G00 Z  0.1000 (retract) 
G00  X -6.5000 Y  5.1225
G00 Z0.02 (plung to zero fast)
G01 Z -0.1000 F  8.0874 (plung)
G01  X  6.5000 F10.4
G00 Z  0.1000 (retract) 
(Draw horizontal cut off line)
G00  Y  2.1125
G00 Z0.02 (plung to zero fast)
G01 Z -0.1000 F  8.0874 (plung)
G01  X -6.5000 F10.4
G00 Z  0.1000 (retract) 
(min_y=0.0 max_y = 2.1125 align_y=5.0)
(Mill  horizontal right alignment hole)
(circle.mill_pocket  diam=0.245 depth=-0.5 island_diam=0 beg_depth=0.1 bit_diam=0.245)
(circle pocket diam is LE bit diam)
(Auto retract in drill )
G00  X  3.0000 Y  5.1225
G00  Z -0.1000
G01 Z -0.1163 F  6.4699 (plung)
G00  Z -0.0673
G00  Z -0.1163
G01 Z -0.1327 F  6.4699 (plung)
G00  Z -0.0837
G00  Z -0.1327
G01 Z -0.1490 F  6.4699 (plung)
G00  Z -0.1000
G00  Z -0.1490
G01 Z -0.1653 F  6.4699 (plung)
G00  Z -0.1163
G00  Z -0.1653
G01 Z -0.1817 F  6.4699 (plung)
G00  Z -0.1327
G00  Z -0.1817
G01 Z -0.1980 F  6.4699 (plung)
G00  Z -0.1490
G00  Z -0.1980
G01 Z -0.2143 F  6.4699 (plung)
G00  Z -0.1653
G00  Z -0.2143
G01 Z -0.2307 F  6.4699 (plung)
G00  Z -0.1817
G00  Z -0.2307
(Triggered full retract on drill at every bit_diam)
G00 Z -0.1000 (retract) 
G00  Z -0.2307
G01 Z -0.2470 F  6.4699 (plung)
G00  Z -0.1980
G00  Z -0.2470
G01 Z -0.2633 F  6.4699 (plung)
G00  Z -0.2143
G00  Z -0.2633
G01 Z -0.2797 F  6.4699 (plung)
G00  Z -0.2307
G00  Z -0.2797
G01 Z -0.2960 F  6.4699 (plung)
G00  Z -0.2470
G00  Z -0.2960
G01 Z -0.3123 F  6.4699 (plung)
G00  Z -0.2633
G00  Z -0.3123
G01 Z -0.3287 F  6.4699 (plung)
G00  Z -0.2797
G00  Z -0.3287
G01 Z -0.3450 F  6.4699 (plung)
G00  Z -0.2960
G00  Z -0.3450
G01 Z -0.3613 F  6.4699 (plung)
G00  Z -0.3123
G00  Z -0.3613
(Triggered full retract on drill at every bit_diam)
G00 Z -0.1000 (retract) 
G00  Z -0.3613
G01 Z -0.3777 F  6.4699 (plung)
G00  Z -0.3287
G00  Z -0.3777
G01 Z -0.3940 F  6.4699 (plung)
G00  Z -0.3450
G00  Z -0.3940
G01 Z -0.4103 F  6.4699 (plung)
G00  Z -0.3613
G00  Z -0.4103
G01 Z -0.4267 F  6.4699 (plung)
G00  Z -0.3777
G00  Z -0.4267
G01 Z -0.4430 F  6.4699 (plung)
G00  Z -0.3940
G00  Z -0.4430
G01 Z -0.4593 F  6.4699 (plung)
G00  Z -0.4103
G00  Z -0.4593
G01 Z -0.4757 F  6.4699 (plung)
G00  Z -0.4267
G00  Z -0.4757
G01 Z -0.4920 F  6.4699 (plung)
G00  Z -0.4430
G00  Z -0.4920
(Triggered full retract on drill at every bit_diam)
G00 Z -0.1000 (retract) 
G00  Z -0.4920
G01 Z -0.5000 F  6.4699 (plung)
G00  Z -0.1000
G00 Z  0.1000 (retract) 
(Mill horizontal left alignment hole)
(circle.mill_pocket  diam=0.245 depth=-0.5 island_diam=0 beg_depth=0.1 bit_diam=0.245)
(circle pocket diam is LE bit diam)
(Auto retract in drill )
G00  X -3.0000
G00  Z -0.1000
G01 Z -0.1163 F  6.4699 (plung)
G00  Z -0.0673
G00  Z -0.1163
G01 Z -0.1327 F  6.4699 (plung)
G00  Z -0.0837
G00  Z -0.1327
G01 Z -0.1490 F  6.4699 (plung)
G00  Z -0.1000
G00  Z -0.1490
G01 Z -0.1653 F  6.4699 (plung)
G00  Z -0.1163
G00  Z -0.1653
G01 Z -0.1817 F  6.4699 (plung)
G00  Z -0.1327
G00  Z -0.1817
G01 Z -0.1980 F  6.4699 (plung)
G00  Z -0.1490
G00  Z -0.1980
G01 Z -0.2143 F  6.4699 (plung)
G00  Z -0.1653
G00  Z -0.2143
G01 Z -0.2307 F  6.4699 (plung)
G00  Z -0.1817
G00  Z -0.2307
(Triggered full retract on drill at every bit_diam)
G00 Z -0.1000 (retract) 
G00  Z -0.2307
G01 Z -0.2470 F  6.4699 (plung)
G00  Z -0.1980
G00  Z -0.2470
G01 Z -0.2633 F  6.4699 (plung)
G00  Z -0.2143
G00  Z -0.2633
G01 Z -0.2797 F  6.4699 (plung)
G00  Z -0.2307
G00  Z -0.2797
G01 Z -0.2960 F  6.4699 (plung)
G00  Z -0.2470
G00  Z -0.2960
G01 Z -0.3123 F  6.4699 (plung)
G00  Z -0.2633
G00  Z -0.3123
G01 Z -0.3287 F  6.4699 (plung)
G00  Z -0.2797
G00  Z -0.3287
G01 Z -0.3450 F  6.4699 (plung)
G00  Z -0.2960
G00  Z -0.3450
G01 Z -0.3613 F  6.4699 (plung)
G00  Z -0.3123
G00  Z -0.3613
(Triggered full retract on drill at every bit_diam)
G00 Z -0.1000 (retract) 
G00  Z -0.3613
G01 Z -0.3777 F  6.4699 (plung)
G00  Z -0.3287
G00  Z -0.3777
G01 Z -0.3940 F  6.4699 (plung)
G00  Z -0.3450
G00  Z -0.3940
G01 Z -0.4103 F  6.4699 (plung)
G00  Z -0.3613
G00  Z -0.4103
G01 Z -0.4267 F  6.4699 (plung)
G00  Z -0.3777
G00  Z -0.4267
G01 Z -0.4430 F  6.4699 (plung)
G00  Z -0.3940
G00  Z -0.4430
G01 Z -0.4593 F  6.4699 (plung)
G00  Z -0.4103
G00  Z -0.4593
G01 Z -0.4757 F  6.4699 (plung)
G00  Z -0.4267
G00  Z -0.4757
G01 Z -0.4920 F  6.4699 (plung)
G00  Z -0.4430
G00  Z -0.4920
(Triggered full retract on drill at every bit_diam)
G00 Z -0.1000 (retract) 
G00  Z -0.4920
G01 Z -0.5000 F  6.4699 (plung)
G00  Z -0.1000
G00 Z  0.1000 (retract) 
(Mill vertical align Holes above focus point)
(Mill vertical align holes below focus point)
(circle.mill_pocket  diam=0.245 depth=-0.5 island_diam=0 beg_depth=0.1 bit_diam=0.245)
(circle pocket diam is LE bit diam)
(Auto retract in drill )
G00  X  0.0000 Y  4.6325
G00  Z -0.1000
G01 Z -0.1163 F  6.4699 (plung)
G00  Z -0.0673
G00  Z -0.1163
G01 Z -0.1327 F  6.4699 (plung)
G00  Z -0.0837
G00  Z -0.1327
G01 Z -0.1490 F  6.4699 (plung)
G00  Z -0.1000
G00  Z -0.1490
G01 Z -0.1653 F  6.4699 (plung)
G00  Z -0.1163
G00  Z -0.1653
G01 Z -0.1817 F  6.4699 (plung)
G00  Z -0.1327
G00  Z -0.1817
G01 Z -0.1980 F  6.4699 (plung)
G00  Z -0.1490
G00  Z -0.1980
G01 Z -0.2143 F  6.4699 (plung)
G00  Z -0.1653
G00  Z -0.2143
G01 Z -0.2307 F  6.4699 (plung)
G00  Z -0.1817
G00  Z -0.2307
(Triggered full retract on drill at every bit_diam)
G00 Z -0.1000 (retract) 
G00  Z -0.2307
G01 Z -0.2470 F  6.4699 (plung)
G00  Z -0.1980
G00  Z -0.2470
G01 Z -0.2633 F  6.4699 (plung)
G00  Z -0.2143
G00  Z -0.2633
G01 Z -0.2797 F  6.4699 (plung)
G00  Z -0.2307
G00  Z -0.2797
G01 Z -0.2960 F  6.4699 (plung)
G00  Z -0.2470
G00  Z -0.2960
G01 Z -0.3123 F  6.4699 (plung)
G00  Z -0.2633
G00  Z -0.3123
G01 Z -0.3287 F  6.4699 (plung)
G00  Z -0.2797
G00  Z -0.3287
G01 Z -0.3450 F  6.4699 (plung)
G00  Z -0.2960
G00  Z -0.3450
G01 Z -0.3613 F  6.4699 (plung)
G00  Z -0.3123
G00  Z -0.3613
(Triggered full retract on drill at every bit_diam)
G00 Z -0.1000 (retract) 
G00  Z -0.3613
G01 Z -0.3777 F  6.4699 (plung)
G00  Z -0.3287
G00  Z -0.3777
G01 Z -0.3940 F  6.4699 (plung)
G00  Z -0.3450
G00  Z -0.3940
G01 Z -0.4103 F  6.4699 (plung)
G00  Z -0.3613
G00  Z -0.4103
G01 Z -0.4267 F  6.4699 (plung)
G00  Z -0.3777
G00  Z -0.4267
G01 Z -0.4430 F  6.4699 (plung)
G00  Z -0.3940
G00  Z -0.4430
G01 Z -0.4593 F  6.4699 (plung)
G00  Z -0.4103
G00  Z -0.4593
G01 Z -0.4757 F  6.4699 (plung)
G00  Z -0.4267
G00  Z -0.4757
G01 Z -0.4920 F  6.4699 (plung)
G00  Z -0.4430
G00  Z -0.4920
(Triggered full retract on drill at every bit_diam)
G00 Z -0.1000 (retract) 
G00  Z -0.4920
G01 Z -0.5000 F  6.4699 (plung)
G00  Z -0.1000
(circle.mill_pocket  diam=0.245 depth=-0.5 island_diam=0 beg_depth=0.1 bit_diam=0.245)
(circle pocket diam is LE bit diam)
(Auto retract in drill )
G00 Z  0.0000 (retract) 
G00  Y  3.8975
G00  Z -0.1000
G01 Z -0.1163 F  6.4699 (plung)
G00  Z -0.0673
G00  Z -0.1163
G01 Z -0.1327 F  6.4699 (plung)
G00  Z -0.0837
G00  Z -0.1327
G01 Z -0.1490 F  6.4699 (plung)
G00  Z -0.1000
G00  Z -0.1490
G01 Z -0.1653 F  6.4699 (plung)
G00  Z -0.1163
G00  Z -0.1653
G01 Z -0.1817 F  6.4699 (plung)
G00  Z -0.1327
G00  Z -0.1817
G01 Z -0.1980 F  6.4699 (plung)
G00  Z -0.1490
G00  Z -0.1980
G01 Z -0.2143 F  6.4699 (plung)
G00  Z -0.1653
G00  Z -0.2143
G01 Z -0.2307 F  6.4699 (plung)
G00  Z -0.1817
G00  Z -0.2307
(Triggered full retract on drill at every bit_diam)
G00 Z -0.1000 (retract) 
G00  Z -0.2307
G01 Z -0.2470 F  6.4699 (plung)
G00  Z -0.1980
G00  Z -0.2470
G01 Z -0.2633 F  6.4699 (plung)
G00  Z -0.2143
G00  Z -0.2633
G01 Z -0.2797 F  6.4699 (plung)
G00  Z -0.2307
G00  Z -0.2797
G01 Z -0.2960 F  6.4699 (plung)
G00  Z -0.2470
G00  Z -0.2960
G01 Z -0.3123 F  6.4699 (plung)
G00  Z -0.2633
G00  Z -0.3123
G01 Z -0.3287 F  6.4699 (plung)
G00  Z -0.2797
G00  Z -0.3287
G01 Z -0.3450 F  6.4699 (plung)
G00  Z -0.2960
G00  Z -0.3450
G01 Z -0.3613 F  6.4699 (plung)
G00  Z -0.3123
G00  Z -0.3613
(Triggered full retract on drill at every bit_diam)
G00 Z -0.1000 (retract) 
G00  Z -0.3613
G01 Z -0.3777 F  6.4699 (plung)
G00  Z -0.3287
G00  Z -0.3777
G01 Z -0.3940 F  6.4699 (plung)
G00  Z -0.3450
G00  Z -0.3940
G01 Z -0.4103 F  6.4699 (plung)
G00  Z -0.3613
G00  Z -0.4103
G01 Z -0.4267 F  6.4699 (plung)
G00  Z -0.3777
G00  Z -0.4267
G01 Z -0.4430 F  6.4699 (plung)
G00  Z -0.3940
G00  Z -0.4430
G01 Z -0.4593 F  6.4699 (plung)
G00  Z -0.4103
G00  Z -0.4593
G01 Z -0.4757 F  6.4699 (plung)
G00  Z -0.4267
G00  Z -0.4757
G01 Z -0.4920 F  6.4699 (plung)
G00  Z -0.4430
G00  Z -0.4920
(Triggered full retract on drill at every bit_diam)
G00 Z -0.1000 (retract) 
G00  Z -0.4920
G01 Z -0.5000 F  6.4699 (plung)
G00  Z -0.1000
(circle.mill_pocket  diam=0.245 depth=-0.5 island_diam=0 beg_depth=0.1 bit_diam=0.245)
(circle pocket diam is LE bit diam)
(Auto retract in drill )
G00 Z  0.0000 (retract) 
G00  Y  3.1625
G00  Z -0.1000
G01 Z -0.1163 F  6.4699 (plung)
G00  Z -0.0673
G00  Z -0.1163
G01 Z -0.1327 F  6.4699 (plung)
G00  Z -0.0837
G00  Z -0.1327
G01 Z -0.1490 F  6.4699 (plung)
G00  Z -0.1000
G00  Z -0.1490
G01 Z -0.1653 F  6.4699 (plung)
G00  Z -0.1163
G00  Z -0.1653
G01 Z -0.1817 F  6.4699 (plung)
G00  Z -0.1327
G00  Z -0.1817
G01 Z -0.1980 F  6.4699 (plung)
G00  Z -0.1490
G00  Z -0.1980
G01 Z -0.2143 F  6.4699 (plung)
G00  Z -0.1653
G00  Z -0.2143
G01 Z -0.2307 F  6.4699 (plung)
G00  Z -0.1817
G00  Z -0.2307
(Triggered full retract on drill at every bit_diam)
G00 Z -0.1000 (retract) 
G00  Z -0.2307
G01 Z -0.2470 F  6.4699 (plung)
G00  Z -0.1980
G00  Z -0.2470
G01 Z -0.2633 F  6.4699 (plung)
G00  Z -0.2143
G00  Z -0.2633
G01 Z -0.2797 F  6.4699 (plung)
G00  Z -0.2307
G00  Z -0.2797
G01 Z -0.2960 F  6.4699 (plung)
G00  Z -0.2470
G00  Z -0.2960
G01 Z -0.3123 F  6.4699 (plung)
G00  Z -0.2633
G00  Z -0.3123
G01 Z -0.3287 F  6.4699 (plung)
G00  Z -0.2797
G00  Z -0.3287
G01 Z -0.3450 F  6.4699 (plung)
G00  Z -0.2960
G00  Z -0.3450
G01 Z -0.3613 F  6.4699 (plung)
G00  Z -0.3123
G00  Z -0.3613
(Triggered full retract on drill at every bit_diam)
G00 Z -0.1000 (retract) 
G00  Z -0.3613
G01 Z -0.3777 F  6.4699 (plung)
G00  Z -0.3287
G00  Z -0.3777
G01 Z -0.3940 F  6.4699 (plung)
G00  Z -0.3450
G00  Z -0.3940
G01 Z -0.4103 F  6.4699 (plung)
G00  Z -0.3613
G00  Z -0.4103
G01 Z -0.4267 F  6.4699 (plung)
G00  Z -0.3777
G00  Z -0.4267
G01 Z -0.4430 F  6.4699 (plung)
G00  Z -0.3940
G00  Z -0.4430
G01 Z -0.4593 F  6.4699 (plung)
G00  Z -0.4103
G00  Z -0.4593
G01 Z -0.4757 F  6.4699 (plung)
G00  Z -0.4267
G00  Z -0.4757
G01 Z -0.4920 F  6.4699 (plung)
G00  Z -0.4430
G00  Z -0.4920
(Triggered full retract on drill at every bit_diam)
G00 Z -0.1000 (retract) 
G00  Z -0.4920
G01 Z -0.5000 F  6.4699 (plung)
G00  Z -0.1000
(circle.mill_pocket  diam=0.245 depth=-0.5 island_diam=0 beg_depth=0.1 bit_diam=0.245)
(circle pocket diam is LE bit diam)
(Auto retract in drill )
G00 Z  0.0000 (retract) 
G00  Y  2.4275
G00  Z -0.1000
G01 Z -0.1163 F  6.4699 (plung)
G00  Z -0.0673
G00  Z -0.1163
G01 Z -0.1327 F  6.4699 (plung)
G00  Z -0.0837
G00  Z -0.1327
G01 Z -0.1490 F  6.4699 (plung)
G00  Z -0.1000
G00  Z -0.1490
G01 Z -0.1653 F  6.4699 (plung)
G00  Z -0.1163
G00  Z -0.1653
G01 Z -0.1817 F  6.4699 (plung)
G00  Z -0.1327
G00  Z -0.1817
G01 Z -0.1980 F  6.4699 (plung)
G00  Z -0.1490
G00  Z -0.1980
G01 Z -0.2143 F  6.4699 (plung)
G00  Z -0.1653
G00  Z -0.2143
G01 Z -0.2307 F  6.4699 (plung)
G00  Z -0.1817
G00  Z -0.2307
(Triggered full retract on drill at every bit_diam)
G00 Z -0.1000 (retract) 
G00  Z -0.2307
G01 Z -0.2470 F  6.4699 (plung)
G00  Z -0.1980
G00  Z -0.2470
G01 Z -0.2633 F  6.4699 (plung)
G00  Z -0.2143
G00  Z -0.2633
G01 Z -0.2797 F  6.4699 (plung)
G00  Z -0.2307
G00  Z -0.2797
G01 Z -0.2960 F  6.4699 (plung)
G00  Z -0.2470
G00  Z -0.2960
G01 Z -0.3123 F  6.4699 (plung)
G00  Z -0.2633
G00  Z -0.3123
G01 Z -0.3287 F  6.4699 (plung)
G00  Z -0.2797
G00  Z -0.3287
G01 Z -0.3450 F  6.4699 (plung)
G00  Z -0.2960
G00  Z -0.3450
G01 Z -0.3613 F  6.4699 (plung)
G00  Z -0.3123
G00  Z -0.3613
(Triggered full retract on drill at every bit_diam)
G00 Z -0.1000 (retract) 
G00  Z -0.3613
G01 Z -0.3777 F  6.4699 (plung)
G00  Z -0.3287
G00  Z -0.3777
G01 Z -0.3940 F  6.4699 (plung)
G00  Z -0.3450
G00  Z -0.3940
G01 Z -0.4103 F  6.4699 (plung)
G00  Z -0.3613
G00  Z -0.4103
G01 Z -0.4267 F  6.4699 (plung)
G00  Z -0.3777
G00  Z -0.4267
G01 Z -0.4430 F  6.4699 (plung)
G00  Z -0.3940
G00  Z -0.4430
G01 Z -0.4593 F  6.4699 (plung)
G00  Z -0.4103
G00  Z -0.4593
G01 Z -0.4757 F  6.4699 (plung)
G00  Z -0.4267
G00  Z -0.4757
G01 Z -0.4920 F  6.4699 (plung)
G00  Z -0.4430
G00  Z -0.4920
(Triggered full retract on drill at every bit_diam)
G00 Z -0.1000 (retract) 
G00  Z -0.4920
G01 Z -0.5000 F  6.4699 (plung)
G00  Z -0.1000
(circle.mill_pocket  diam=0.245 depth=-0.5 island_diam=0 beg_depth=0.1 bit_diam=0.245)
(circle pocket diam is LE bit diam)
(Auto retract in drill )
G00 Z  0.0000 (retract) 
G00  Y  1.6925
G00  Z -0.1000
G01 Z -0.1163 F  6.4699 (plung)
G00  Z -0.0673
G00  Z -0.1163
G01 Z -0.1327 F  6.4699 (plung)
G00  Z -0.0837
G00  Z -0.1327
G01 Z -0.1490 F  6.4699 (plung)
G00  Z -0.1000
G00  Z -0.1490
G01 Z -0.1653 F  6.4699 (plung)
G00  Z -0.1163
G00  Z -0.1653
G01 Z -0.1817 F  6.4699 (plung)
G00  Z -0.1327
G00  Z -0.1817
G01 Z -0.1980 F  6.4699 (plung)
G00  Z -0.1490
G00  Z -0.1980
G01 Z -0.2143 F  6.4699 (plung)
G00  Z -0.1653
G00  Z -0.2143
G01 Z -0.2307 F  6.4699 (plung)
G00  Z -0.1817
G00  Z -0.2307
(Triggered full retract on drill at every bit_diam)
G00 Z -0.1000 (retract) 
G00  Z -0.2307
G01 Z -0.2470 F  6.4699 (plung)
G00  Z -0.1980
G00  Z -0.2470
G01 Z -0.2633 F  6.4699 (plung)
G00  Z -0.2143
G00  Z -0.2633
G01 Z -0.2797 F  6.4699 (plung)
G00  Z -0.2307
G00  Z -0.2797
G01 Z -0.2960 F  6.4699 (plung)
G00  Z -0.2470
G00  Z -0.2960
G01 Z -0.3123 F  6.4699 (plung)
G00  Z -0.2633
G00  Z -0.3123
G01 Z -0.3287 F  6.4699 (plung)
G00  Z -0.2797
G00  Z -0.3287
G01 Z -0.3450 F  6.4699 (plung)
G00  Z -0.2960
G00  Z -0.3450
G01 Z -0.3613 F  6.4699 (plung)
G00  Z -0.3123
G00  Z -0.3613
(Triggered full retract on drill at every bit_diam)
G00 Z -0.1000 (retract) 
G00  Z -0.3613
G01 Z -0.3777 F  6.4699 (plung)
G00  Z -0.3287
G00  Z -0.3777
G01 Z -0.3940 F  6.4699 (plung)
G00  Z -0.3450
G00  Z -0.3940
G01 Z -0.4103 F  6.4699 (plung)
G00  Z -0.3613
G00  Z -0.4103
G01 Z -0.4267 F  6.4699 (plung)
G00  Z -0.3777
G00  Z -0.4267
G01 Z -0.4430 F  6.4699 (plung)
G00  Z -0.3940
G00  Z -0.4430
G01 Z -0.4593 F  6.4699 (plung)
G00  Z -0.4103
G00  Z -0.4593
G01 Z -0.4757 F  6.4699 (plung)
G00  Z -0.4267
G00  Z -0.4757
G01 Z -0.4920 F  6.4699 (plung)
G00  Z -0.4430
G00  Z -0.4920
(Triggered full retract on drill at every bit_diam)
G00 Z -0.1000 (retract) 
G00  Z -0.4920
G01 Z -0.5000 F  6.4699 (plung)
G00  Z -0.1000
(circle.mill_pocket  diam=0.245 depth=-0.5 island_diam=0 beg_depth=0.1 bit_diam=0.245)
(circle pocket diam is LE bit diam)
(Auto retract in drill )
G00 Z  0.0000 (retract) 
G00  Y  0.9575
G00  Z -0.1000
G01 Z -0.1163 F  6.4699 (plung)
G00  Z -0.0673
G00  Z -0.1163
G01 Z -0.1327 F  6.4699 (plung)
G00  Z -0.0837
G00  Z -0.1327
G01 Z -0.1490 F  6.4699 (plung)
G00  Z -0.1000
G00  Z -0.1490
G01 Z -0.1653 F  6.4699 (plung)
G00  Z -0.1163
G00  Z -0.1653
G01 Z -0.1817 F  6.4699 (plung)
G00  Z -0.1327
G00  Z -0.1817
G01 Z -0.1980 F  6.4699 (plung)
G00  Z -0.1490
G00  Z -0.1980
G01 Z -0.2143 F  6.4699 (plung)
G00  Z -0.1653
G00  Z -0.2143
G01 Z -0.2307 F  6.4699 (plung)
G00  Z -0.1817
G00  Z -0.2307
(Triggered full retract on drill at every bit_diam)
G00 Z -0.1000 (retract) 
G00  Z -0.2307
G01 Z -0.2470 F  6.4699 (plung)
G00  Z -0.1980
G00  Z -0.2470
G01 Z -0.2633 F  6.4699 (plung)
G00  Z -0.2143
G00  Z -0.2633
G01 Z -0.2797 F  6.4699 (plung)
G00  Z -0.2307
G00  Z -0.2797
G01 Z -0.2960 F  6.4699 (plung)
G00  Z -0.2470
G00  Z -0.2960
G01 Z -0.3123 F  6.4699 (plung)
G00  Z -0.2633
G00  Z -0.3123
G01 Z -0.3287 F  6.4699 (plung)
G00  Z -0.2797
G00  Z -0.3287
G01 Z -0.3450 F  6.4699 (plung)
G00  Z -0.2960
G00  Z -0.3450
G01 Z -0.3613 F  6.4699 (plung)
G00  Z -0.3123
G00  Z -0.3613
(Triggered full retract on drill at every bit_diam)
G00 Z -0.1000 (retract) 
G00  Z -0.3613
G01 Z -0.3777 F  6.4699 (plung)
G00  Z -0.3287
G00  Z -0.3777
G01 Z -0.3940 F  6.4699 (plung)
G00  Z -0.3450
G00  Z -0.3940
G01 Z -0.4103 F  6.4699 (plung)
G00  Z -0.3613
G00  Z -0.4103
G01 Z -0.4267 F  6.4699 (plung)
G00  Z -0.3777
G00  Z -0.4267
G01 Z -0.4430 F  6.4699 (plung)
G00  Z -0.3940
G00  Z -0.4430
G01 Z -0.4593 F  6.4699 (plung)
G00  Z -0.4103
G00  Z -0.4593
G01 Z -0.4757 F  6.4699 (plung)
G00  Z -0.4267
G00  Z -0.4757
G01 Z -0.4920 F  6.4699 (plung)
G00  Z -0.4430
G00  Z -0.4920
(Triggered full retract on drill at every bit_diam)
G00 Z -0.1000 (retract) 
G00  Z -0.4920
G01 Z -0.5000 F  6.4699 (plung)
G00  Z -0.1000
(Mill out Center Aiming Axel hole)
(focus_diam=0.245 focus_y=5.0 depth=-0.5)
G00 Z  0.1000 (retract) 
(circle.mill_pocket  diam=0.245 depth=-0.5 island_diam=0 beg_depth=0.1 bit_diam=0.245)
(circle pocket diam is LE bit diam)
(Auto retract in drill )
G00  Y  5.1225
G00  Z -0.1000
G01 Z -0.1163 F  6.4699 (plung)
G00  Z -0.0673
G00  Z -0.1163
G01 Z -0.1327 F  6.4699 (plung)
G00  Z -0.0837
G00  Z -0.1327
G01 Z -0.1490 F  6.4699 (plung)
G00  Z -0.1000
G00  Z -0.1490
G01 Z -0.1653 F  6.4699 (plung)
G00  Z -0.1163
G00  Z -0.1653
G01 Z -0.1817 F  6.4699 (plung)
G00  Z -0.1327
G00  Z -0.1817
G01 Z -0.1980 F  6.4699 (plung)
G00  Z -0.1490
G00  Z -0.1980
G01 Z -0.2143 F  6.4699 (plung)
G00  Z -0.1653
G00  Z -0.2143
G01 Z -0.2307 F  6.4699 (plung)
G00  Z -0.1817
G00  Z -0.2307
(Triggered full retract on drill at every bit_diam)
G00 Z -0.1000 (retract) 
G00  Z -0.2307
G01 Z -0.2470 F  6.4699 (plung)
G00  Z -0.1980
G00  Z -0.2470
G01 Z -0.2633 F  6.4699 (plung)
G00  Z -0.2143
G00  Z -0.2633
G01 Z -0.2797 F  6.4699 (plung)
G00  Z -0.2307
G00  Z -0.2797
G01 Z -0.2960 F  6.4699 (plung)
G00  Z -0.2470
G00  Z -0.2960
G01 Z -0.3123 F  6.4699 (plung)
G00  Z -0.2633
G00  Z -0.3123
G01 Z -0.3287 F  6.4699 (plung)
G00  Z -0.2797
G00  Z -0.3287
G01 Z -0.3450 F  6.4699 (plung)
G00  Z -0.2960
G00  Z -0.3450
G01 Z -0.3613 F  6.4699 (plung)
G00  Z -0.3123
G00  Z -0.3613
(Triggered full retract on drill at every bit_diam)
G00 Z -0.1000 (retract) 
G00  Z -0.3613
G01 Z -0.3777 F  6.4699 (plung)
G00  Z -0.3287
G00  Z -0.3777
G01 Z -0.3940 F  6.4699 (plung)
G00  Z -0.3450
G00  Z -0.3940
G01 Z -0.4103 F  6.4699 (plung)
G00  Z -0.3613
G00  Z -0.4103
G01 Z -0.4267 F  6.4699 (plung)
G00  Z -0.3777
G00  Z -0.4267
G01 Z -0.4430 F  6.4699 (plung)
G00  Z -0.3940
G00  Z -0.4430
G01 Z -0.4593 F  6.4699 (plung)
G00  Z -0.4103
G00  Z -0.4593
G01 Z -0.4757 F  6.4699 (plung)
G00  Z -0.4267
G00  Z -0.4757
G01 Z -0.4920 F  6.4699 (plung)
G00  Z -0.4430
G00  Z -0.4920
(Triggered full retract on drill at every bit_diam)
G00 Z -0.1000 (retract) 
G00  Z -0.4920
G01 Z -0.5000 F  6.4699 (plung)
G00  Z -0.1000
G00 Z  0.1000 (retract) 
(Mill out the actual Arc)
(mill.cut_depth_inc=0.24)
G00  X -6.5000 Y  2.1125
G00 Z0.02 (plung to zero fast)
G01 Z -0.2520 F  8.0874 (plung)
(Begin Parabola pass)
G01  X -6.4000 Y  2.0480 F10.4
G01  X -6.3000 Y  1.9845 F10.4
G01  X -6.2000 Y  1.9220 F10.4
G01  X -6.1000 Y  1.8605 F10.4
G01  X -6.0000 Y  1.8000 F10.4
G01  X -5.9000 Y  1.7405 F10.4
G01  X -5.8000 Y  1.6820 F10.4
G01  X -5.7000 Y  1.6245 F10.4
G01  X -5.6000 Y  1.5680 F10.4
G01  X -5.5000 Y  1.5125 F10.4
G01  X -5.4000 Y  1.4580 F10.4
G01  X -5.3000 Y  1.4045 F10.4
G01  X -5.2000 Y  1.3520 F10.4
G01  X -5.1000 Y  1.3005 F10.4
G01  X -5.0000 Y  1.2500 F10.4
G01  X -4.9000 Y  1.2005 F10.4
G01  X -4.8000 Y  1.1520 F10.4
G01  X -4.7000 Y  1.1045 F10.4
G01  X -4.6000 Y  1.0580 F10.4
G01  X -4.5000 Y  1.0125 F10.4
G01  X -4.4000 Y  0.9680 F10.4
G01  X -4.3000 Y  0.9245 F10.4
G01  X -4.2000 Y  0.8820 F10.4
G01  X -4.1000 Y  0.8405 F10.4
G01  X -4.0000 Y  0.8000 F10.4
G01  X -3.9000 Y  0.7605 F10.4
G01  X -3.8000 Y  0.7220 F10.4
G01  X -3.7000 Y  0.6845 F10.4
G01  X -3.6000 Y  0.6480 F10.4
G01  X -3.5000 Y  0.6125 F10.4
G01  X -3.4000 Y  0.5780 F10.4
G01  X -3.3000 Y  0.5445 F10.4
G01  X -3.2000 Y  0.5120 F10.4
G01  X -3.1000 Y  0.4805 F10.4
G01  X -3.0000 Y  0.4500 F10.4
G01  X -2.9000 Y  0.4205 F10.4
G01  X -2.8000 Y  0.3920 F10.4
G01  X -2.7000 Y  0.3645 F10.4
G01  X -2.6000 Y  0.3380 F10.4
G01  X -2.5000 Y  0.3125 F10.4
G01  X -2.4000 Y  0.2880 F10.4
G01  X -2.3000 Y  0.2645 F10.4
G01  X -2.2000 Y  0.2420 F10.4
G01  X -2.1000 Y  0.2205 F10.4
G01  X -2.0000 Y  0.2000 F10.4
G01  X -1.9000 Y  0.1805 F10.4
G01  X -1.8000 Y  0.1620 F10.4
G01  X -1.7000 Y  0.1445 F10.4
G01  X -1.6000 Y  0.1280 F10.4
G01  X -1.5000 Y  0.1125 F10.4
G01  X -1.4000 Y  0.0980 F10.4
G01  X -1.3000 Y  0.0845 F10.4
G01  X -1.2000 Y  0.0720 F10.4
G01  X -1.1000 Y  0.0605 F10.4
G01  X -1.0000 Y  0.0500 F10.4
G01  X -0.9000 Y  0.0405 F10.4
G01  X -0.8000 Y  0.0320 F10.4
G01  X -0.7000 Y  0.0245 F10.4
G01  X -0.6000 Y  0.0180 F10.4
G01  X -0.5000 Y  0.0125 F10.4
G01  X -0.4000 Y  0.0080 F10.4
G01  X -0.3000 Y  0.0045 F10.4
G01  X -0.2000 Y  0.0020 F10.4
G01  X -0.1000 Y  0.0005 F10.4
G01  X -0.0000 Y  0.0000 F10.4
G01  X  0.1000 Y  0.0005 F10.4
G01  X  0.2000 Y  0.0020 F10.4
G01  X  0.3000 Y  0.0045 F10.4
G01  X  0.4000 Y  0.0080 F10.4
G01  X  0.5000 Y  0.0125 F10.4
G01  X  0.6000 Y  0.0180 F10.4
G01  X  0.7000 Y  0.0245 F10.4
G01  X  0.8000 Y  0.0320 F10.4
G01  X  0.9000 Y  0.0405 F10.4
G01  X  1.0000 Y  0.0500 F10.4
G01  X  1.1000 Y  0.0605 F10.4
G01  X  1.2000 Y  0.0720 F10.4
G01  X  1.3000 Y  0.0845 F10.4
G01  X  1.4000 Y  0.0980 F10.4
G01  X  1.5000 Y  0.1125 F10.4
G01  X  1.6000 Y  0.1280 F10.4
G01  X  1.7000 Y  0.1445 F10.4
G01  X  1.8000 Y  0.1620 F10.4
G01  X  1.9000 Y  0.1805 F10.4
G01  X  2.0000 Y  0.2000 F10.4
G01  X  2.1000 Y  0.2205 F10.4
G01  X  2.2000 Y  0.2420 F10.4
G01  X  2.3000 Y  0.2645 F10.4
G01  X  2.4000 Y  0.2880 F10.4
G01  X  2.5000 Y  0.3125 F10.4
G01  X  2.6000 Y  0.3380 F10.4
G01  X  2.7000 Y  0.3645 F10.4
G01  X  2.8000 Y  0.3920 F10.4
G01  X  2.9000 Y  0.4205 F10.4
G01  X  3.0000 Y  0.4500 F10.4
G01  X  3.1000 Y  0.4805 F10.4
G01  X  3.2000 Y  0.5120 F10.4
G01  X  3.3000 Y  0.5445 F10.4
G01  X  3.4000 Y  0.5780 F10.4
G01  X  3.5000 Y  0.6125 F10.4
G01  X  3.6000 Y  0.6480 F10.4
G01  X  3.7000 Y  0.6845 F10.4
G01  X  3.8000 Y  0.7220 F10.4
G01  X  3.9000 Y  0.7605 F10.4
G01  X  4.0000 Y  0.8000 F10.4
G01  X  4.1000 Y  0.8405 F10.4
G01  X  4.2000 Y  0.8820 F10.4
G01  X  4.3000 Y  0.9245 F10.4
G01  X  4.4000 Y  0.9680 F10.4
G01  X  4.5000 Y  1.0125 F10.4
G01  X  4.6000 Y  1.0580 F10.4
G01  X  4.7000 Y  1.1045 F10.4
G01  X  4.8000 Y  1.1520 F10.4
G01  X  4.9000 Y  1.2005 F10.4
G01  X  5.0000 Y  1.2500 F10.4
G01  X  5.1000 Y  1.3005 F10.4
G01  X  5.2000 Y  1.3520 F10.4
G01  X  5.3000 Y  1.4045 F10.4
G01  X  5.4000 Y  1.4580 F10.4
G01  X  5.5000 Y  1.5125 F10.4
G01  X  5.6000 Y  1.5680 F10.4
G01  X  5.7000 Y  1.6245 F10.4
G01  X  5.8000 Y  1.6820 F10.4
G01  X  5.9000 Y  1.7405 F10.4
G01  X  6.0000 Y  1.8000 F10.4
G01  X  6.1000 Y  1.8605 F10.4
G01  X  6.2000 Y  1.9220 F10.4
G01  X  6.3000 Y  1.9845 F10.4
G01  X  6.4000 Y  2.0480 F10.4
G01  X  6.5000 Y  2.1125 F10.4
(Reverse parabola pass)
G01 Z -0.4320 F  8.0874 (plung)
G01  X  6.5000 Y  2.1125 F10.4
G01  X  6.4000 Y  2.0480 F10.4
G01  X  6.3000 Y  1.9845 F10.4
G01  X  6.2000 Y  1.9220 F10.4
G01  X  6.1000 Y  1.8605 F10.4
G01  X  6.0000 Y  1.8000 F10.4
G01  X  5.9000 Y  1.7405 F10.4
G01  X  5.8000 Y  1.6820 F10.4
G01  X  5.7000 Y  1.6245 F10.4
G01  X  5.6000 Y  1.5680 F10.4
G01  X  5.5000 Y  1.5125 F10.4
G01  X  5.4000 Y  1.4580 F10.4
G01  X  5.3000 Y  1.4045 F10.4
G01  X  5.2000 Y  1.3520 F10.4
G01  X  5.1000 Y  1.3005 F10.4
G01  X  5.0000 Y  1.2500 F10.4
G01  X  4.9000 Y  1.2005 F10.4
G01  X  4.8000 Y  1.1520 F10.4
G01  X  4.7000 Y  1.1045 F10.4
G01  X  4.6000 Y  1.0580 F10.4
G01  X  4.5000 Y  1.0125 F10.4
G01  X  4.4000 Y  0.9680 F10.4
G01  X  4.3000 Y  0.9245 F10.4
G01  X  4.2000 Y  0.8820 F10.4
G01  X  4.1000 Y  0.8405 F10.4
G01  X  4.0000 Y  0.8000 F10.4
G01  X  3.9000 Y  0.7605 F10.4
G01  X  3.8000 Y  0.7220 F10.4
G01  X  3.7000 Y  0.6845 F10.4
G01  X  3.6000 Y  0.6480 F10.4
G01  X  3.5000 Y  0.6125 F10.4
G01  X  3.4000 Y  0.5780 F10.4
G01  X  3.3000 Y  0.5445 F10.4
G01  X  3.2000 Y  0.5120 F10.4
G01  X  3.1000 Y  0.4805 F10.4
G01  X  3.0000 Y  0.4500 F10.4
G01  X  2.9000 Y  0.4205 F10.4
G01  X  2.8000 Y  0.3920 F10.4
G01  X  2.7000 Y  0.3645 F10.4
G01  X  2.6000 Y  0.3380 F10.4
G01  X  2.5000 Y  0.3125 F10.4
G01  X  2.4000 Y  0.2880 F10.4
G01  X  2.3000 Y  0.2645 F10.4
G01  X  2.2000 Y  0.2420 F10.4
G01  X  2.1000 Y  0.2205 F10.4
G01  X  2.0000 Y  0.2000 F10.4
G01  X  1.9000 Y  0.1805 F10.4
G01  X  1.8000 Y  0.1620 F10.4
G01  X  1.7000 Y  0.1445 F10.4
G01  X  1.6000 Y  0.1280 F10.4
G01  X  1.5000 Y  0.1125 F10.4
G01  X  1.4000 Y  0.0980 F10.4
G01  X  1.3000 Y  0.0845 F10.4
G01  X  1.2000 Y  0.0720 F10.4
G01  X  1.1000 Y  0.0605 F10.4
G01  X  1.0000 Y  0.0500 F10.4
G01  X  0.9000 Y  0.0405 F10.4
G01  X  0.8000 Y  0.0320 F10.4
G01  X  0.7000 Y  0.0245 F10.4
G01  X  0.6000 Y  0.0180 F10.4
G01  X  0.5000 Y  0.0125 F10.4
G01  X  0.4000 Y  0.0080 F10.4
G01  X  0.3000 Y  0.0045 F10.4
G01  X  0.2000 Y  0.0020 F10.4
G01  X  0.1000 Y  0.0005 F10.4
G01  X  0.0000 Y  0.0000 F10.4
G01  X -0.1000 Y  0.0005 F10.4
G01  X -0.2000 Y  0.0020 F10.4
G01  X -0.3000 Y  0.0045 F10.4
G01  X -0.4000 Y  0.0080 F10.4
G01  X -0.5000 Y  0.0125 F10.4
G01  X -0.6000 Y  0.0180 F10.4
G01  X -0.7000 Y  0.0245 F10.4
G01  X -0.8000 Y  0.0320 F10.4
G01  X -0.9000 Y  0.0405 F10.4
G01  X -1.0000 Y  0.0500 F10.4
G01  X -1.1000 Y  0.0605 F10.4
G01  X -1.2000 Y  0.0720 F10.4
G01  X -1.3000 Y  0.0845 F10.4
G01  X -1.4000 Y  0.0980 F10.4
G01  X -1.5000 Y  0.1125 F10.4
G01  X -1.6000 Y  0.1280 F10.4
G01  X -1.7000 Y  0.1445 F10.4
G01  X -1.8000 Y  0.1620 F10.4
G01  X -1.9000 Y  0.1805 F10.4
G01  X -2.0000 Y  0.2000 F10.4
G01  X -2.1000 Y  0.2205 F10.4
G01  X -2.2000 Y  0.2420 F10.4
G01  X -2.3000 Y  0.2645 F10.4
G01  X -2.4000 Y  0.2880 F10.4
G01  X -2.5000 Y  0.3125 F10.4
G01  X -2.6000 Y  0.3380 F10.4
G01  X -2.7000 Y  0.3645 F10.4
G01  X -2.8000 Y  0.3920 F10.4
G01  X -2.9000 Y  0.4205 F10.4
G01  X -3.0000 Y  0.4500 F10.4
G01  X -3.1000 Y  0.4805 F10.4
G01  X -3.2000 Y  0.5120 F10.4
G01  X -3.3000 Y  0.5445 F10.4
G01  X -3.4000 Y  0.5780 F10.4
G01  X -3.5000 Y  0.6125 F10.4
G01  X -3.6000 Y  0.6480 F10.4
G01  X -3.7000 Y  0.6845 F10.4
G01  X -3.8000 Y  0.7220 F10.4
G01  X -3.9000 Y  0.7605 F10.4
G01  X -4.0000 Y  0.8000 F10.4
G01  X -4.1000 Y  0.8405 F10.4
G01  X -4.2000 Y  0.8820 F10.4
G01  X -4.3000 Y  0.9245 F10.4
G01  X -4.4000 Y  0.9680 F10.4
G01  X -4.5000 Y  1.0125 F10.4
G01  X -4.6000 Y  1.0580 F10.4
G01  X -4.7000 Y  1.1045 F10.4
G01  X -4.8000 Y  1.1520 F10.4
G01  X -4.9000 Y  1.2005 F10.4
G01  X -5.0000 Y  1.2500 F10.4
G01  X -5.1000 Y  1.3005 F10.4
G01  X -5.2000 Y  1.3520 F10.4
G01  X -5.3000 Y  1.4045 F10.4
G01  X -5.4000 Y  1.4580 F10.4
G01  X -5.5000 Y  1.5125 F10.4
G01  X -5.6000 Y  1.5680 F10.4
G01  X -5.7000 Y  1.6245 F10.4
G01  X -5.8000 Y  1.6820 F10.4
G01  X -5.9000 Y  1.7405 F10.4
G01  X -6.0000 Y  1.8000 F10.4
G01  X -6.1000 Y  1.8605 F10.4
G01  X -6.2000 Y  1.9220 F10.4
G01  X -6.3000 Y  1.9845 F10.4
G01  X -6.4000 Y  2.0480 F10.4
G01  X -6.5000 Y  2.1125 F10.4
G00  X -6.5000 Y  2.1125
G00 Z -0.3200 (retract) 
(Begin Parabola pass)
G01  X -6.4000 Y  2.0480 F10.4
G01  X -6.3000 Y  1.9845 F10.4
G01  X -6.2000 Y  1.9220 F10.4
G01  X -6.1000 Y  1.8605 F10.4
G01  X -6.0000 Y  1.8000 F10.4
G01  X -5.9000 Y  1.7405 F10.4
G01  X -5.8000 Y  1.6820 F10.4
G01  X -5.7000 Y  1.6245 F10.4
G01  X -5.6000 Y  1.5680 F10.4
G01  X -5.5000 Y  1.5125 F10.4
G01  X -5.4000 Y  1.4580 F10.4
G01  X -5.3000 Y  1.4045 F10.4
G01  X -5.2000 Y  1.3520 F10.4
G01  X -5.1000 Y  1.3005 F10.4
G01  X -5.0000 Y  1.2500 F10.4
G01  X -4.9000 Y  1.2005 F10.4
G01  X -4.8000 Y  1.1520 F10.4
G01  X -4.7000 Y  1.1045 F10.4
G01  X -4.6000 Y  1.0580 F10.4
G01  X -4.5000 Y  1.0125 F10.4
G01  X -4.4000 Y  0.9680 F10.4
G01  X -4.3000 Y  0.9245 F10.4
G01  X -4.2000 Y  0.8820 F10.4
G01  X -4.1000 Y  0.8405 F10.4
G01  X -4.0000 Y  0.8000 F10.4
G01  X -3.9000 Y  0.7605 F10.4
G01  X -3.8000 Y  0.7220 F10.4
G01  X -3.7000 Y  0.6845 F10.4
G01  X -3.6000 Y  0.6480 F10.4
G01  X -3.5000 Y  0.6125 F10.4
G01  X -3.4000 Y  0.5780 F10.4
G01  X -3.3000 Y  0.5445 F10.4
G01  X -3.2000 Y  0.5120 F10.4
G01  X -3.1000 Y  0.4805 F10.4
G01  X -3.0000 Y  0.4500 F10.4
G01  X -2.9000 Y  0.4205 F10.4
G01  X -2.8000 Y  0.3920 F10.4
G01  X -2.7000 Y  0.3645 F10.4
G01  X -2.6000 Y  0.3380 F10.4
G01  X -2.5000 Y  0.3125 F10.4
G01  X -2.4000 Y  0.2880 F10.4
G01  X -2.3000 Y  0.2645 F10.4
G01  X -2.2000 Y  0.2420 F10.4
G01  X -2.1000 Y  0.2205 F10.4
G01  X -2.0000 Y  0.2000 F10.4
G01  X -1.9000 Y  0.1805 F10.4
G01  X -1.8000 Y  0.1620 F10.4
G01  X -1.7000 Y  0.1445 F10.4
G01  X -1.6000 Y  0.1280 F10.4
G01  X -1.5000 Y  0.1125 F10.4
G01  X -1.4000 Y  0.0980 F10.4
G01  X -1.3000 Y  0.0845 F10.4
G01  X -1.2000 Y  0.0720 F10.4
G01  X -1.1000 Y  0.0605 F10.4
G01  X -1.0000 Y  0.0500 F10.4
G01  X -0.9000 Y  0.0405 F10.4
G01  X -0.8000 Y  0.0320 F10.4
G01  X -0.7000 Y  0.0245 F10.4
G01  X -0.6000 Y  0.0180 F10.4
G01  X -0.5000 Y  0.0125 F10.4
G01  X -0.4000 Y  0.0080 F10.4
G01  X -0.3000 Y  0.0045 F10.4
G01  X -0.2000 Y  0.0020 F10.4
G01  X -0.1000 Y  0.0005 F10.4
G01  X -0.0000 Y  0.0000 F10.4
G01  X  0.1000 Y  0.0005 F10.4
G01  X  0.2000 Y  0.0020 F10.4
G01  X  0.3000 Y  0.0045 F10.4
G01  X  0.4000 Y  0.0080 F10.4
G01  X  0.5000 Y  0.0125 F10.4
G01  X  0.6000 Y  0.0180 F10.4
G01  X  0.7000 Y  0.0245 F10.4
G01  X  0.8000 Y  0.0320 F10.4
G01  X  0.9000 Y  0.0405 F10.4
G01  X  1.0000 Y  0.0500 F10.4
G01  X  1.1000 Y  0.0605 F10.4
G01  X  1.2000 Y  0.0720 F10.4
G01  X  1.3000 Y  0.0845 F10.4
G01  X  1.4000 Y  0.0980 F10.4
G01  X  1.5000 Y  0.1125 F10.4
G01  X  1.6000 Y  0.1280 F10.4
G01  X  1.7000 Y  0.1445 F10.4
G01  X  1.8000 Y  0.1620 F10.4
G01  X  1.9000 Y  0.1805 F10.4
G01  X  2.0000 Y  0.2000 F10.4
G01  X  2.1000 Y  0.2205 F10.4
G01  X  2.2000 Y  0.2420 F10.4
G01  X  2.3000 Y  0.2645 F10.4
G01  X  2.4000 Y  0.2880 F10.4
G01  X  2.5000 Y  0.3125 F10.4
G01  X  2.6000 Y  0.3380 F10.4
G01  X  2.7000 Y  0.3645 F10.4
G01  X  2.8000 Y  0.3920 F10.4
G01  X  2.9000 Y  0.4205 F10.4
G01  X  3.0000 Y  0.4500 F10.4
G01  X  3.1000 Y  0.4805 F10.4
G01  X  3.2000 Y  0.5120 F10.4
G01  X  3.3000 Y  0.5445 F10.4
G01  X  3.4000 Y  0.5780 F10.4
G01  X  3.5000 Y  0.6125 F10.4
G01  X  3.6000 Y  0.6480 F10.4
G01  X  3.7000 Y  0.6845 F10.4
G01  X  3.8000 Y  0.7220 F10.4
G01  X  3.9000 Y  0.7605 F10.4
G01  X  4.0000 Y  0.8000 F10.4
G01  X  4.1000 Y  0.8405 F10.4
G01  X  4.2000 Y  0.8820 F10.4
G01  X  4.3000 Y  0.9245 F10.4
G01  X  4.4000 Y  0.9680 F10.4
G01  X  4.5000 Y  1.0125 F10.4
G01  X  4.6000 Y  1.0580 F10.4
G01  X  4.7000 Y  1.1045 F10.4
G01  X  4.8000 Y  1.1520 F10.4
G01  X  4.9000 Y  1.2005 F10.4
G01  X  5.0000 Y  1.2500 F10.4
G01  X  5.1000 Y  1.3005 F10.4
G01  X  5.2000 Y  1.3520 F10.4
G01  X  5.3000 Y  1.4045 F10.4
G01  X  5.4000 Y  1.4580 F10.4
G01  X  5.5000 Y  1.5125 F10.4
G01  X  5.6000 Y  1.5680 F10.4
G01  X  5.7000 Y  1.6245 F10.4
G01  X  5.8000 Y  1.6820 F10.4
G01  X  5.9000 Y  1.7405 F10.4
G01  X  6.0000 Y  1.8000 F10.4
G01  X  6.1000 Y  1.8605 F10.4
G01  X  6.2000 Y  1.9220 F10.4
G01  X  6.3000 Y  1.9845 F10.4
G01  X  6.4000 Y  2.0480 F10.4
G01  X  6.5000 Y  2.1125 F10.4
(Reverse parabola pass)
G01 Z -0.5000 F  8.0874 (plung)
G01  X  6.5000 Y  2.1125 F10.4
G01  X  6.4000 Y  2.0480 F10.4
G01  X  6.3000 Y  1.9845 F10.4
G01  X  6.2000 Y  1.9220 F10.4
G01  X  6.1000 Y  1.8605 F10.4
G01  X  6.0000 Y  1.8000 F10.4
G01  X  5.9000 Y  1.7405 F10.4
G01  X  5.8000 Y  1.6820 F10.4
G01  X  5.7000 Y  1.6245 F10.4
G01  X  5.6000 Y  1.5680 F10.4
G01  X  5.5000 Y  1.5125 F10.4
G01  X  5.4000 Y  1.4580 F10.4
G01  X  5.3000 Y  1.4045 F10.4
G01  X  5.2000 Y  1.3520 F10.4
G01  X  5.1000 Y  1.3005 F10.4
G01  X  5.0000 Y  1.2500 F10.4
G01  X  4.9000 Y  1.2005 F10.4
G01  X  4.8000 Y  1.1520 F10.4
G01  X  4.7000 Y  1.1045 F10.4
G01  X  4.6000 Y  1.0580 F10.4
G01  X  4.5000 Y  1.0125 F10.4
G01  X  4.4000 Y  0.9680 F10.4
G01  X  4.3000 Y  0.9245 F10.4
G01  X  4.2000 Y  0.8820 F10.4
G01  X  4.1000 Y  0.8405 F10.4
G01  X  4.0000 Y  0.8000 F10.4
G01  X  3.9000 Y  0.7605 F10.4
G01  X  3.8000 Y  0.7220 F10.4
G01  X  3.7000 Y  0.6845 F10.4
G01  X  3.6000 Y  0.6480 F10.4
G01  X  3.5000 Y  0.6125 F10.4
G01  X  3.4000 Y  0.5780 F10.4
G01  X  3.3000 Y  0.5445 F10.4
G01  X  3.2000 Y  0.5120 F10.4
G01  X  3.1000 Y  0.4805 F10.4
G01  X  3.0000 Y  0.4500 F10.4
G01  X  2.9000 Y  0.4205 F10.4
G01  X  2.8000 Y  0.3920 F10.4
G01  X  2.7000 Y  0.3645 F10.4
G01  X  2.6000 Y  0.3380 F10.4
G01  X  2.5000 Y  0.3125 F10.4
G01  X  2.4000 Y  0.2880 F10.4
G01  X  2.3000 Y  0.2645 F10.4
G01  X  2.2000 Y  0.2420 F10.4
G01  X  2.1000 Y  0.2205 F10.4
G01  X  2.0000 Y  0.2000 F10.4
G01  X  1.9000 Y  0.1805 F10.4
G01  X  1.8000 Y  0.1620 F10.4
G01  X  1.7000 Y  0.1445 F10.4
G01  X  1.6000 Y  0.1280 F10.4
G01  X  1.5000 Y  0.1125 F10.4
G01  X  1.4000 Y  0.0980 F10.4
G01  X  1.3000 Y  0.0845 F10.4
G01  X  1.2000 Y  0.0720 F10.4
G01  X  1.1000 Y  0.0605 F10.4
G01  X  1.0000 Y  0.0500 F10.4
G01  X  0.9000 Y  0.0405 F10.4
G01  X  0.8000 Y  0.0320 F10.4
G01  X  0.7000 Y  0.0245 F10.4
G01  X  0.6000 Y  0.0180 F10.4
G01  X  0.5000 Y  0.0125 F10.4
G01  X  0.4000 Y  0.0080 F10.4
G01  X  0.3000 Y  0.0045 F10.4
G01  X  0.2000 Y  0.0020 F10.4
G01  X  0.1000 Y  0.0005 F10.4
G01  X  0.0000 Y  0.0000 F10.4
G01  X -0.1000 Y  0.0005 F10.4
G01  X -0.2000 Y  0.0020 F10.4
G01  X -0.3000 Y  0.0045 F10.4
G01  X -0.4000 Y  0.0080 F10.4
G01  X -0.5000 Y  0.0125 F10.4
G01  X -0.6000 Y  0.0180 F10.4
G01  X -0.7000 Y  0.0245 F10.4
G01  X -0.8000 Y  0.0320 F10.4
G01  X -0.9000 Y  0.0405 F10.4
G01  X -1.0000 Y  0.0500 F10.4
G01  X -1.1000 Y  0.0605 F10.4
G01  X -1.2000 Y  0.0720 F10.4
G01  X -1.3000 Y  0.0845 F10.4
G01  X -1.4000 Y  0.0980 F10.4
G01  X -1.5000 Y  0.1125 F10.4
G01  X -1.6000 Y  0.1280 F10.4
G01  X -1.7000 Y  0.1445 F10.4
G01  X -1.8000 Y  0.1620 F10.4
G01  X -1.9000 Y  0.1805 F10.4
G01  X -2.0000 Y  0.2000 F10.4
G01  X -2.1000 Y  0.2205 F10.4
G01  X -2.2000 Y  0.2420 F10.4
G01  X -2.3000 Y  0.2645 F10.4
G01  X -2.4000 Y  0.2880 F10.4
G01  X -2.5000 Y  0.3125 F10.4
G01  X -2.6000 Y  0.3380 F10.4
G01  X -2.7000 Y  0.3645 F10.4
G01  X -2.8000 Y  0.3920 F10.4
G01  X -2.9000 Y  0.4205 F10.4
G01  X -3.0000 Y  0.4500 F10.4
G01  X -3.1000 Y  0.4805 F10.4
G01  X -3.2000 Y  0.5120 F10.4
G01  X -3.3000 Y  0.5445 F10.4
G01  X -3.4000 Y  0.5780 F10.4
G01  X -3.5000 Y  0.6125 F10.4
G01  X -3.6000 Y  0.6480 F10.4
G01  X -3.7000 Y  0.6845 F10.4
G01  X -3.8000 Y  0.7220 F10.4
G01  X -3.9000 Y  0.7605 F10.4
G01  X -4.0000 Y  0.8000 F10.4
G01  X -4.1000 Y  0.8405 F10.4
G01  X -4.2000 Y  0.8820 F10.4
G01  X -4.3000 Y  0.9245 F10.4
G01  X -4.4000 Y  0.9680 F10.4
G01  X -4.5000 Y  1.0125 F10.4
G01  X -4.6000 Y  1.0580 F10.4
G01  X -4.7000 Y  1.1045 F10.4
G01  X -4.8000 Y  1.1520 F10.4
G01  X -4.9000 Y  1.2005 F10.4
G01  X -5.0000 Y  1.2500 F10.4
G01  X -5.1000 Y  1.3005 F10.4
G01  X -5.2000 Y  1.3520 F10.4
G01  X -5.3000 Y  1.4045 F10.4
G01  X -5.4000 Y  1.4580 F10.4
G01  X -5.5000 Y  1.5125 F10.4
G01  X -5.6000 Y  1.5680 F10.4
G01  X -5.7000 Y  1.6245 F10.4
G01  X -5.8000 Y  1.6820 F10.4
G01  X -5.9000 Y  1.7405 F10.4
G01  X -6.0000 Y  1.8000 F10.4
G01  X -6.1000 Y  1.8605 F10.4
G01  X -6.2000 Y  1.9220 F10.4
G01  X -6.3000 Y  1.9845 F10.4
G01  X -6.4000 Y  2.0480 F10.4
G01  X -6.5000 Y  2.1125 F10.4
G00 Z  0.1000 (retract) 
G00 X0 Y0 (HOME) 
%
